X:3
T:La Cinquantaine
M:C|
K:C
L:1/4
Q:1/2=100
 (Ae)ee | ed/2e/2f2 | (Ae)ee | ed/2e/2(f2 | a)g/2f/2ed | cB/2A/2Bc |1 B3A | B3E :|2 B3 B | A4 |]
